X:1
T:James Gibb editions
T:Then sit thee down - Dowland
%%score [ 1 2 ]
L:1/8
Q:1/4=140
M:4/4
K:C
V:1 treble nm="Soprano" snm="S"
V:2 bass nm="Bass" snm="B"
V:1
"^Then sit thee down""^John Dowland\n(1563-1626)" z4 G4 | G4 (^F3 E) | D8 | z4 D4 | ^F4 G4 | %5
w: Then|sit thee *|down,|and|say thy|
w: |||||
 A6 A2 | G2 G6 |[M:4/4] z4 D4 | (D3 E ^F2) G2 | A4 A4 | G4 c4 | B6 B2 | A4 A4 | z4 A4 | B2 c2 d4- | %15
w: ||with||||and *||Chant||
w: Nunc Di-|mit- tis,||De * * pro-|fun- dis,|Cre- do,|* Te|De- um,||Mi- se- re\-|
 d2 A2 c4 | B4 A2 G2 | A2 A6 | z4 G4 | A4 c4 | B6 B2 | A2 G2 G4- | G4 ^F4 | G4 G4 |: z4 G4- | %25
w: * * for|what now so|fit is,|as|that, or|this, *||||O|
w: * re *|||||* Pa-|ra- tum est|* cor|me- um.||
 G2 D2 F4 | E4 A4 | G4 c4 | B6 B2 | A8 | z8 | z4 d4- | d2 A2 c4 | B4 A4 | A2 G2 G4 | %35
w: * that thy|saint would|take in|worth thy|heart,||thou|* canst not|please her|with a bet-|
w: ||||||||||
 (^F2 G4 !courtesy!^F2) | G8 :| %37
w: ter * *|part.|
w: ||
V:2
 G,8 | G,8- | G,4 (^F,2 E,2) | D,8 | z2 D,2 C,2 B,,2 | C,2 (A,,2 D,4) | G,,4 G,,4 |[M:4/4] D,8- | %8
w: Then|sit|* thee *|down,|and say thy|||with|
w: |||||Nunc Di\- *|mit- tis,||
 D,8 | A,,2 B,,2 C,2 D,2 | E,4 A,,4 | E,6 E,2 | A,,4 A,,4 | D,6 E,^F, | G,6 D,2 | ^F,4 E,4 | %16
w: |||and *||Chant * *||for what|
w: |De Pro- fun- dis,|Cre- do,|* Te|De- um,|* Mi- se-|re- re||
 G,4 E,4 | D,2 D,4 C,2 | B,,8 | A,,8 | G,,4 G,4 | C,4 E,4 | D,4 D,4 | G,,4 G,,4 |: C,6 G,,2 | %25
w: now so|fit is, as|that,|or|this, *||||O that|
w: ||||* Pa-|ra- tum|est cor|me- um.||
 (B,,4 A,,4) | C,4 F,4 | E,4 (C,2 A,,2) | E,6 E,2 | A,,8 | D,6 A,,2 | C,4 B,,4 | A,,8 | %33
w: thy *|saint would|take in *|worth thy|heart,|thou canst|not please|her|
w: ||||||||
 G,,4 ^F,,4 | G,,8 | D,8 | G,,8 :| %37
w: with a|bet-|ter|part.|
w: ||||

